public/img/vk-white.svg

<svg width="24" height="24" viewBox="0 0 24 24" fill="none" xmlns="http://www.w3.org/2000/svg">
<path d="M21.579 6.85483C21.719 6.38983 21.579 6.04883 20.917 6.04883H18.724C18.166 6.04883 17.911 6.34383 17.771 6.66783C17.771 6.66783 16.656 9.38683 15.076 11.1498C14.566 11.6628 14.333 11.8248 14.055 11.8248C13.916 11.8248 13.714 11.6628 13.714 11.1978V6.85483C13.714 6.29683 13.553 6.04883 13.088 6.04883H9.642C9.294 6.04883 9.084 6.30683 9.084 6.55283C9.084 7.08083 9.874 7.20283 9.955 8.69083V11.9188C9.955 12.6258 9.828 12.7548 9.548 12.7548C8.805 12.7548 6.997 10.0258 5.924 6.90183C5.715 6.29483 5.504 6.04983 4.944 6.04983H2.752C2.125 6.04983 2 6.34483 2 6.66883C2 7.25083 2.743 10.1308 5.461 13.9398C7.273 16.5408 9.824 17.9508 12.148 17.9508C13.541 17.9508 13.713 17.6378 13.713 17.0978V15.1318C13.713 14.5058 13.846 14.3798 14.287 14.3798C14.611 14.3798 15.169 14.5438 16.47 15.7968C17.956 17.2828 18.202 17.9498 19.037 17.9498H21.229C21.855 17.9498 22.168 17.6368 21.988 17.0188C21.791 16.4038 21.081 15.5088 20.139 14.4498C19.627 13.8458 18.862 13.1958 18.629 12.8708C18.304 12.4518 18.398 12.2668 18.629 11.8948C18.63 11.8958 21.301 8.13383 21.579 6.85483Z" fill="white"/>
</svg>

<svg width="24" height="24" fill="none" xmlns="http://www.w3.org/2000/svg"><path d="M21.579 6.855c.14-.465 0-.806-.662-.806h-2.193c-.558 0-.813.295-.953.619 0 0-1.115 2.719-2.695 4.482-.51.513-.743.675-1.021.675-.139 0-.341-.162-.341-.627V6.855c0-.558-.161-.806-.626-.806H9.642c-.348 0-.558.258-.558.504 0 .528.79.65.871 2.138v3.228c0 .707-.127.836-.407.836-.743 0-2.551-2.73-3.624-5.853-.209-.607-.42-.852-.98-.852H2.752c-.627 0-.752.295-.752.619 0 .582.743 3.462 3.461 7.27 1.812 2.602 4.363 4.012 6.687 4.012 1.393 0 1.565-.313 1.565-.853v-1.966c0-.626.133-.752.574-.752.324 0 .882.164 2.183 1.417 1.486 1.486 1.732 2.153 2.567 2.153h2.192c.626 0 .939-.313.759-.931-.197-.615-.907-1.51-1.849-2.57-.512-.603-1.277-1.253-1.51-1.578-.325-.42-.231-.604 0-.976.001 0 2.672-3.761 2.95-5.04z" fill="#fff"/></svg>
